X:0306
T:3d Quick March 15th Regt
M:2/4
L:1/16
Q:1/4=88
I: :: :: ::
Z:Jack Campin * www.campin.me.uk * 2009
K:D
a4   a4  |a6     g2|f2ed e2dc|d2A2 F2D2|\
a4   a4  |a6     g2|f2ed e2dc|d4   d4 :|
f2ag f2ed|g2ba g2fe|f2gf e2fe|dcBA GFED|\
f2ag f2ed|g2ba g2fe|fafd egec|d4   d4 :|
f2f2e2f2 |g2g2f2g2 |a2g2f2e2 |d2A2 A4  |\
f2f2e2f2 |g2g2f2g2 |a2g2f2e2 |d4   d4 :|
<end>
<start>
